!!!COM:	la Rue, Pierre de
!!!CDT:	~1452///-1518/11/20
!!!OTL:	Credo de villagiis
!!!AGN:	Mass section; Credo
!!!SCT:	Rue1036
!!!SCA:	Rue1036
!!!voices:	4
**kern	**kern	**kern	**kern
*staff4	*staff3	*staff2	*staff1
*Ivox	*Ivox	*Ivox	*Ivox
*I"Bassus	*I"Tenor	*I"Contra	*I"Discantus
*I'B	*I'T	*I'C	*I'D
*>[A,B]	*>[A,B]	*>[A,B]	*>[A,B]
*>A	*>A	*>A	*>A
*clefF4	*clefGv2	*clefGv2	*clefG2
*k[b-e-]	*k[b-e-]	*k[b-e-]	*k[b-e-]
*M2/1	*M2/1	*M2/1	*M2/1
*met(C|)	*met(C|)	*met(C|)	*met(C|)
!!section: Patrem omnipotentem
!!!OMD: Patrem omnipotentem
=1-	=1-	=1-	=1-
0D	1r	0r	0r
.	1d	.	.
=2	=2	=2	=2
0G	1e-	0r	0r
.	1d	.	.
=3	=3	=3	=3
0r	0r	1.g	1.ee-
.	.	2f\	2dd\
=4	=4	=4	=4
0r	0r	1e-	1cc
.	.	1d	1bni
=5	=5	=5	=5
0r	1A	1c	0cc
.	2c\	1r	.
.	[2c\	.	.
=6	=6	=6	=6
1F	2c\]	0r	0r
.	1c	.	.
2E-\	.	.	.
[2G\	2B-\	.	.
=7	=7	=7	=7
2G\]	1.d	0r	1r
2F\	.	.	.
[1F	.	.	2.a/
.	2c\	.	.
.	.	.	4b-\
=8	=8	=8	=8
1F]	1c	1r	2cc\
.	.	.	2cc\
1r	1r	2.d\	2dd\
.	.	.	4cc\
.	.	4e-\	4b-\
=9	=9	=9	=9
0r	0r	2f\	2a/
.	.	2f\	2.dd\
.	.	2g\	.
.	.	.	4b-\
.	.	4f\	2cc\
.	.	4e-\	.
=10	=10	=10	=10
0r	1r	2d\	2dd\
.	.	1g	2b-\
.	1d	.	1a
.	.	2f#i\	.
=11	=11	=11	=11
[0G	1e-	0g	0r
.	1d	.	.
=12	=12	=12	=12
0G]	2B-\	0r	0r
.	2c\	.	.
.	2d\	.	.
.	2B-\	.	.
=13	=13	=13	=13
2E-\	2c\	0r	0r
2F\	2d\	.	.
2G\	2G/	.	.
2E-\	[2c\	.	.
=14	=14	=14	=14
2F\	2c\]	1r	0r
2G\	2Bni\	.	.
1C	[1c	1e-	.
=15	=15	=15	=15
1F	1c]	1f	1a
2F\	1A	2f\	2a/
2F\	.	[2f\	2a/
=16	=16	=16	=16
2F\	2A/	2f\]	1cc
1F	2A/	4e-\	.
.	.	4d\	.
.	1c	2c\	2a/
4E-\	.	2d\	2b-\
4D\	.	.	.
=17	=17	=17	=17
1.C	2A/	2e-\	1.cc
.	2G/	2c\	.
.	[1c	1g	.
2C/	.	.	4b-\
.	.	.	4a/
=18	=18	=18	=18
1C	2c\]	1r	2g/
.	4B-\	.	1cc
.	4A/	.	.
2r	1G	1g	.
2G\	.	.	2b-\
=19	=19	=19	=19
2E-\	2r	1g	1ee-
2C/	1c	.	.
1G	.	1g	1dd
.	2B-\	.	.
=20	=20	=20	=20
1C	1e-	[0g	2r
.	.	.	2cc\
2r	1d	.	2cc\
2G\	.	.	2b-\
=21	=21	=21	=21
2E-\	2r	0g]	1ee-
2C/	2c\	.	.
[1G	2c\	.	1dd
.	2B-\	.	.
=22	=22	=22	=22
2G\]	1e-	0r	2b-\
2A\	.	.	2cc\
2B-\	1d	.	2dd\
[2G\	.	.	[2b-\
=23	=23	=23	=23
2G\]	2B-\	1G	2b-\]
4F\	2c\	.	4a/
4E-\	.	.	4g/
2D\	4d\	2A/	2f/
.	4c\	.	.
[2G\	4d\	[2B-\	2g/
.	4e-\	.	.
=24	=24	=24	=24
4G\]	2d\	4B-\]	2.b-\
4E-\	.	4G/	.
2F\	1c	2A/	.
.	.	.	4cc\
1D	.	1F	1dd
.	2Bni\	.	.
=25	=25	=25	=25
0C	0c	2G/	2r
.	.	1g	1ee-
.	.	2g\	2ee-\
=26	=26	=26	=26
0r	0r	2g\	2ee-\
.	.	2g\	2ee-\
.	.	1a-	1cc
=27	=27	=27	=27
0r	0r	1g	0b-
.	.	2r	.
.	.	[2e-\	.
=28	=28	=28	=28
0r	0r	2e-\]	2r
.	.	2e-\	1g
.	.	2e-\	.
.	.	2e-\	2g/
=29	=29	=29	=29
0r	0r	1e-	2g/
.	.	.	2g/
.	.	1f	1a
=30	=30	=30	=30
0r	1r	2e-\	2g/
.	.	2c\	1cc
.	1d	1d	.
.	.	.	2bni\
=31	=31	=31	=31
1r	1.e-	1c	1cc
1G	.	1r	1r
.	2d\	.	.
=32	=32	=32	=32
1.A-	1c	0r	0r
.	1B-	.	.
2G\	.	.	.
=33	=33	=33	=33
1F	2r	0r	0r
.	2d\	.	.
1E-	2e-\	.	.
.	2e-\	.	.
=34	=34	=34	=34
2r	2d\	0r	0r
2F\	2c\	.	.
2E-\	2e-\	.	.
2A-\	4d\	.	.
.	4c\	.	.
=35	=35	=35	=35
2G\	1B-	0r	0r
2F\	.	.	.
1E-	2r	.	.
.	2e-\	.	.
=36	=36	=36	=36
2r	2d\	0r	0r
2A-i\	2c\	.	.
2G\	1B-	.	.
2F\	.	.	.
=37	=37	=37	=37
2E-\	1e-	0r	2r
1A-i	.	.	2cc\
.	2c\	.	2ee-\
2F\	2d\	.	[2dd\
=38	=38	=38	=38
2G\	2B-\	0r	2dd\]
2E-\	2c\	.	1cc
2F\	1d	.	.
2G\	.	.	2bni\
=39	=39	=39	=39
0C	0c	2.e-\	0cc
.	.	4f\	.
.	.	2g\	.
.	.	2g\	.
=40	=40	=40	=40
0r	0r	0g	2.b-\
.	.	.	4cc\
.	.	.	2dd\
.	.	.	2dd\
=41	=41	=41	=41
0r	0r	0d	1dd
.	.	.	[1a
=42	=42	=42	=42
0r	0r	2r	1a]
.	.	1f	.
.	.	.	2r
.	.	2f\	[2cc\
=43	=43	=43	=43
0r	0r	2f\	2cc\]
.	.	2f\	2cc\
.	.	2e-\	2cc\
.	.	2c\	2cc\
=44	=44	=44	=44
0r	1d	1f	2b-\
.	.	.	2a/
.	1e-	1g	1cc
=45	=45	=45	=45
1G	1d	0r	0dd
1B-	1d	.	.
=46	=46	=46	=46
2A\	1f	0r	0r
2F\	.	.	.
2G\	2e-\	.	.
2E-\	2c\	.	.
=47	=47	=47	=47
1F	1d	0r	1a
1G	1d	.	1b-
=48	=48	=48	=48
1C	1c	1e-	2.cc\
.	.	.	4b-\
1r	1r	1f	4a/
.	.	.	4g/
.	.	.	2a/
=49	=49	=49	=49
0r	0r	1g	2g/
.	.	.	2.b-\
.	.	2g\	.
.	.	.	4cc\
.	.	[2g\	4dd\
.	.	.	8cc\L
.	.	.	8dd\J
=50	=50	=50	=50
0r	0r	4g\]	2ee-\
.	.	4f\	.
.	.	4e-\	1dd
.	.	4d\	.
.	.	1e-	.
.	.	.	2cc\
=51	=51	=51	=51
0r	0r	2d\	1dd
.	.	2g\	.
.	.	2g\	2r
.	.	2g\	2dd\
=52	=52	=52	=52
0r	0r	2f\	2dd\
.	.	1g	2dd\
.	.	.	2ee-\
.	.	4f\	[2dd\
.	.	4e-\	.
=53	=53	=53	=53
0r	0r	2f\	2dd\]
.	.	2g\	4cc\
.	.	.	4b-\
.	.	2c\	2cc\
.	.	[2g\	2dd\
=54	=54	=54	=54
0r	0r	2g\]	2g/
.	.	2f\	1dd
.	.	2d\	.
.	.	2e-\	2cc\
=55	=55	=55	=55
0r	0r	2f\	2a/
.	.	2.g\	2.b-\
.	.	4f\	4a/
.	.	4e-\	4g/
.	.	4d\	4f/
=56	=56	=56	=56
1r	0r	4c\	4e-/
.	.	4d\	4f/
.	.	4e-\	4g/
.	.	8d\L	8f/L
.	.	8e-\J	8g/J
2r	.	2f\	2a-i/
2C/	.	2e-\	2g/
=57	=57	=57	=57
2D\	0r	4d\	2f/
.	.	4c\	.
2E-\	.	1c	2e-/
2F\	.	.	1d
2G\	.	2Bni\	.
=58	=58	=58	=58
[0C	2r	0c	0r
.	2G/	.	.
.	2A/	.	.
.	2G/	.	.
=59	=59	=59	=59
0C]	0c	0r	1cc
.	.	.	2a/
.	.	.	2g/
=60	=60	=60	=60
1r	1d	1r	2b-\
.	.	.	2b-\
2r	1c	2r	2cc\
2C/	.	2e-\	2g/
=61	=61	=61	=61
2F\	1c	2f\	2a/
2E-\	.	2g\	2g/
[1C	1c	[1e-	2.cc\
.	.	.	4b-\
=62	=62	=62	=62
1C]	1c	1e-]	2g/
.	.	.	2.cc\
2r	1c	[1e-	.
.	.	.	4b-\
[2c\	.	.	4a/
.	.	.	4g/
=63	=63	=63	=63
4c\]	0c	1e-]	2a/
4B-\	.	.	.
4A\	.	.	1g
4G\	.	.	.
1A	.	1c	.
.	.	.	2f#i/
=64	=64	=64	=64
0G	1d	0B-	[0g
.	1d	.	.
=65	=65	=65	=65
2r	1e-	2r	0g]
1G	.	2B-\	.
.	2d\	2B-\	.
2G\	2d\	[2B-\	.
=66	=66	=66	=66
2G\	2B-\	2B-\]	1r
2E-\	2c\	2G/	.
2F\	1d	2A/	2r
2G\	.	2B-\	2b-\
=67	=67	=67	=67
0C	0c	2G/	2cc\
.	.	2g\	1ee-
.	.	2g\	.
.	.	2g\	2dd\
=68	=68	=68	=68
0r	1r	2a\	2.cc\
.	.	1g	.
.	.	.	4b-\
.	1d	.	1a
.	.	2f#i\	.
=69	=69	=69	=69
0G	1e-	0g	0g
.	[1d	.	.
=70	=70	=70	=70
1F	1d]	0a-	1r
1F	1c	.	1cc
=71	=71	=71	=71
2E-\	1c	2g\	1cc
2F\	.	2a-i\	.
1D	1B-	1f	1dd
=72	=72	=72	=72
0C	[0cl	0e-	2.ee-\
.	.	.	4dd\
.	.	.	4cc\
.	.	.	4b-\
.	.	.	[2cc\
=73	=73	=73	=73
0F	0c_	0f	4cc\]
.	.	.	4b-\
.	.	.	4a/
.	.	.	4g/
.	.	.	1a
=74	=74	=74	=74
0Cl	0c]	0e-l	0gl
!!LO:LB:i:g=z
=75||	=75||	=75||	=75||
*>B	*>B	*>B	*>B
*clefF4	*clefGv2	*clefGv2	*clefG2
*k[b-e-]	*k[b-e-]	*k[b-e-]	*k[b-e-]
*M2/1	*M2/1	*M2/1	*M2/1
*met(C|)	*met(C|)	*met(C|)	*met(C|)
!!section: Crucifixus
!!!OMD: Crucifixus
1F	1c	1f	1a
2F\	1d	2f\	2a/
[2F\	.	[2f\	[2a/
=76	=76	=76	=76
2F\]	1c	2f\]	2a/]
2F\	.	2f\	2a/
2F\	1A	2a\	2cc\
2F\	.	2a\	2cc\
=77	=77	=77	=77
2BB-\ 2B-\	1r	2b-\	2dd\
2BB-\ 2B-\	.	2b-\	2dd\
[1F	2r	1a	1cc
.	[2c\	.	.
=78	=78	=78	=78
1F]	2c\]	0f	0a
.	2c\	.	.
1F	2d\	.	.
.	2d\	.	.
=79	=79	=79	=79
2r	1c	2r	2r
2F\	.	2f\	2a/
2F\	1A	2f\	2a/
2F\	.	2f\	2a/
=80	=80	=80	=80
2.C/	2r	2.g\	2.cc\
.	2G/	.	.
4D\	.	4f\	4b-\
2E-\	2c\	2e-\	2g/
[2F\	2c\	2d\	[2a/
=81	=81	=81	=81
2F\]	2c\	0c	2a/]
2E-\	2c\	.	1g
1A-	1c	.	.
.	.	.	2f/
=82	=82	=82	=82
0G	0d	0B-	1g
.	.	.	[1b-
=83	=83	=83	=83
2r	1d	0r	1b-]
1B-	.	.	.
.	1e-	.	1cc
2A\	.	.	.
=84	=84	=84	=84
2B-\	1d	0r	2.dd\
1G	.	.	.
.	.	.	4cc\
.	[1d	.	2b-\
2F\	.	.	2a/
=85	=85	=85	=85
2G\	2d\]	0r	2dd\
2C/	2c\	.	2ee-\
1D	2c\	.	1ff
.	2Bni\	.	.
=86	=86	=86	=86
[0C	[0c	1g	0ee-
.	.	2a-\	.
.	.	2a-i\	.
=87	=87	=87	=87
0C]	0c]	1g	2r
.	.	.	2ee-\
.	.	[1e-	2ee-\
.	.	.	2ee-\
=88	=88	=88	=88
0r	0r	1e-]	2b-\
.	.	.	1ee-
.	.	1f	.
.	.	.	2dd\
=89	=89	=89	=89
0r	1r	2e-\	2cc\
.	.	2d\	2b-\
.	1d	1f	1a
=90	=90	=90	=90
1r	1e-	0g	0g
1G	2d\	.	.
.	2B-\	.	.
=91	=91	=91	=91
1A	2c\	0r	0r
.	2A/	.	.
1G	4B-\	.	.
.	4A/	.	.
.	4B-\	.	.
.	4G/	.	.
=92	=92	=92	=92
2F\	2A/	0r	0r
2G\	1G	.	.
4E-\	.	.	.
4D\	.	.	.
4E-\	[2c\	.	.
4C/	.	.	.
=93	=93	=93	=93
2D\	2c\]	1r	0r
2D\	2Bni\	.	.
1C	1c	2r	.
.	.	2e-\	.
=94	=94	=94	=94
2r	1r	2e-\	0r
2E-\	.	2e-\	.
2E-\	[1c	2g\	.
2E-\	.	2g\	.
=95	=95	=95	=95
2F\	1c]	2.a-i\	0r
2G\	.	.	.
.	.	4g\	.
2.A-\	1c	2e-\	.
.	.	2f\	.
4G\	.	.	.
=96	=96	=96	=96
1E-	1c	1g	2r
.	.	.	2g/
1r	1c	1r	2a/
.	.	.	2b-\
=97	=97	=97	=97
0r	1c	0r	2cc\
.	.	.	2dd\
.	1c	.	2ee-\
.	.	.	4dd\
.	.	.	4cc\
=98	=98	=98	=98
2r	[0d	1r	0b-
2G\	.	.	.
2G\	.	2r	.
2G\	.	2g\	.
=99	=99	=99	=99
0B-	0d]	2g\	2r
.	.	2g\	2dd\
.	.	[1b-	2dd\
.	.	.	2dd\
=100	=100	=100	=100
1B-	2r	1b-]	1.ff
.	2d\	.	.
[1F	2d\	1a	.
.	2d\	.	2ee-\
=101	=101	=101	=101
0F]	1.f	1a	1cc
.	.	1a	2cc\
.	2e-\	.	[2dd\
=102	=102	=102	=102
0G	2.d\	0g	4dd\]
.	.	.	4g/
.	.	.	1cc
.	4c\	.	.
.	1d	.	.
.	.	.	2bni\
=103	=103	=103	=103
0C	0c	2r	0cc
.	.	2e-\	.
.	.	2e-\	.
.	.	2e-\	.
=104	=104	=104	=104
2r	0r	2.e-\	1r
2E-\	.	.	.
.	.	4f\	.
2E-\	.	2g\	2r
2E-\	.	2g\	2b-\
=105	=105	=105	=105
2.E-\	0r	0g	2b-\
.	.	.	2b-\
4F\	.	.	.
2G\	.	.	2.b-\
2G\	.	.	.
.	.	.	4cc\
=106	=106	=106	=106
0G	0r	1g	2dd\
.	.	.	2dd\
.	.	2f\	[1dd
.	.	2e-\	.
=107	=107	=107	=107
1G	0r	1.d	1dd]
2F\	.	.	1r
2E-\	.	2c\	.
=108	=108	=108	=108
[0D	0r	1d	1dd
.	.	[1f	2cc\
.	.	.	2b-\
=109	=109	=109	=109
0D]	0r	1f]	1a
.	.	1d	2b-\
.	.	.	[2a/
=110	=110	=110	=110
0r	1d	0r	2a/]
.	.	.	1dd
.	1e-	.	.
.	.	.	2cc\
=111	=111	=111	=111
0r	1d	1f	1dd
.	1c	2e-\	1r
.	.	[2g\	.
=112	=112	=112	=112
0r	1c	4g\]	0r
.	.	4c\	.
.	.	2e-\	.
.	1B-	1d	.
=113	=113	=113	=113
1r	1c	1c	2r
.	.	.	2g/
2r	1c	1r	2g/
2C/	.	.	2g/
=114	=114	=114	=114
2C/	1c	2r	0cc
2C/	.	2c\	.
1F	1c	4c\	.
.	.	2.c\	.
=115	=115	=115	=115
0r	1.B-	1f	2r
.	.	.	1dd
.	.	1g	.
.	[2e-\	.	2b-\
=116	=116	=116	=116
1r	4e-\]	2e-\	2cc\
.	4d\	.	.
.	2d\	2f\	2dd\
2r	2e-\	2g\	1g
[2G\	2d\	2d\	.
=117	=117	=117	=117
2G\]	2e-\	1g	0r
2E-\	1c	.	.
2F\	.	1r	.
2G\	2Bni\	.	.
=118	=118	=118	=118
0C	0c	1.g	1r
.	.	.	[1ee-
.	.	2g\	.
=119	=119	=119	=119
1.C	2r	1g	2ee-\]
.	1c	.	2ee-\
.	.	1g	2ee-\
2C/	2c\	.	2ee-\
=120	=120	=120	=120
1C	2c\	0g	0ee-
.	2c\	.	.
1C	1c	.	.
=121	=121	=121	=121
1C	1c	1g	1cc
[1G	[1d	2g\	2b-\
.	.	[2b-\	2g/
=122	=122	=122	=122
2G\]	0d]	2b-\]	1b-
2A\	.	2a\	.
1B-	.	2g\	4b-\
.	.	.	4cc\
.	.	2f\	4dd\
.	.	.	8cc\L
.	.	.	8dd\J
=123	=123	=123	=123
0c	2c\	2e-\	2ee-\
.	2B-\	1g	2dd\
.	1A	.	1cc
.	.	2f#i\	.
=124	=124	=124	=124
0d	0G	0g	0b-
=125	=125	=125	=125
1D	1d	0r	2r
.	.	.	2f/
1r	1e-	.	2g/
.	.	.	[2b-\
=126	=126	=126	=126
0r	1d	0r	4b-\]
.	.	.	4a/
.	.	.	4f/
.	.	.	4g/
.	1c	.	2a/
.	.	.	[2g/
=127	=127	=127	=127
1r	1B-	2r	2g/]
.	.	2d\	2f/
1G	1B-	2d\	1g
.	.	2d\	.
=128	=128	=128	=128
2.C/	0c	2.e-\	0r
4D\	.	4f\	.
2E-\	.	2g\	.
[2F\	.	[2a-i\	.
=129	=129	=129	=129
4F\]	0r	4a-\]	0r
4E-\	.	4g\	.
2C/	.	1e-	.
1G	.	.	.
.	.	2d\	.
=130	=130	=130	=130
2B-\	0r	2d\	0r
1A	.	2.c\	.
.	.	4d\	.
2G\	.	2B-\	.
=131	=131	=131	=131
2.G\	1r	1A	0r
4F#i\	.	.	.
1G	1d	2r	.
.	.	2G/	.
=132	=132	=132	=132
1r	2d\	2G/	1g
.	2d\	2G/	.
2r	1d	1G	2g/
2G\	.	.	2g/
=133	=133	=133	=133
2G\	2r	0r	1g
2G\	2d\	.	.
1G	2e-\	.	2r
.	2e-\	.	2g/
=134	=134	=134	=134
2r	0d	0r	2.b-\
2G\	.	.	.
.	.	.	4a/
2.B-\	.	.	2f/
.	.	.	2g/
4A\	.	.	.
=135	=135	=135	=135
2F\	2r	1r	2a/
2G\	2d\	.	2g/
1C	2e-\	1g	1r
.	2e-\	.	.
=136	=136	=136	=136
2r	2e-\	2g\	0r
2G\	2e-\	2g\	.
2G\	[1d	2.b-\	.
2G\	.	.	.
.	.	4a\	.
=137	=137	=137	=137
2.B-\	1d]	2f\	0r
.	.	2g\	.
4A\	.	.	.
2F\	2r	2a\	.
2G\	2d\	[2g\	.
=138	=138	=138	=138
1C	1.e-	2g\]	1cc
.	.	1g	.
1C	.	.	1cc
.	2d\	2g\	.
=139	=139	=139	=139
2C/	1c	2g\	1ee-
2C/	.	2g\	.
1G	1B-	1g	2ee-\
.	.	.	[2dd\
=140	=140	=140	=140
1A	1c	1f	2dd\]
.	.	.	1cc
1G	1d	1g	.
.	.	.	2bni\
=141	=141	=141	=141
2C/	1c	0r	0cc
2F\	.	.	.
2F\	2c\	.	.
2A-\	2c\	.	.
=142	=142	=142	=142
2A-i\	2e-\	0r	0r
2E-\	2e-\	.	.
1G	4B-\	.	.
.	4c\	.	.
.	4d\	.	.
.	4e-\	.	.
=143	=143	=143	=143
2.F\	2d\	0r	0r
.	1c	.	.
4E-\	.	.	.
1D	.	.	.
.	2Bni\	.	.
=144	=144	=144	=144
*M3/1	*M3/1	*M3/1	*M3/1
*met(3)	*met(3)	*met(3)	*met(3)
*	*	*met()	*
!	!	!LO:N:vis=0	!
0.C	0.c	0.r	1r
.	.	.	1r
.	.	.	1a
=145	=145	=145	=145
*	*	*M3/1	*
*met(3)	*met(3)	*met(3)	*met(3)
0.r	0.r	1d	1b-
.	.	1e-	1cc
.	.	1f	1a
=146	=146	=146	=146
0.r	0.r	1d	1b-
.	.	1e-	1g
.	.	1c	1cc
=147	=147	=147	=147
0.r	0.r	1f	1cc
.	.	1f	0dd
.	.	[1g	.
=148	=148	=148	=148
0.r	0.r	1g]	1dd
.	.	1g	1ee-
.	.	2g\	1dd
.	.	2g\	.
=149	=149	=149	=149
0.r	0.r	1a-i	1cc
.	.	1g	2b-\
.	.	.	2g/
.	.	1f	1a
=150	=150	=150	=150
0.r	0.r	1.e-	1g
.	.	.	2a/
.	.	2c\	1cc
.	.	1d	.
.	.	.	2bni\
=151	=151	=151	=151
1r	1.A	0.c	0.cc
1.F	.	.	.
.	2B-\	.	.
.	1c	.	.
2G\	.	.	.
=152	=152	=152	=152
1A	1c	0.r	0.r
1A	1.A	.	.
[1F	.	.	.
.	2B-\	.	.
=153	=153	=153	=153
2F\]	2c\	0.r	0.r
2G\	2A/	.	.
2A\	0c	.	.
2F\	.	.	.
1A	.	.	.
=154	=154	=154	=154
1F	2B-\	0.r	0.r
.	2A/	.	.
2E-\	1.c	.	.
2D\	.	.	.
1E-	.	.	.
.	2d\	.	.
=155	=155	=155	=155
0D	0d	1f	1a
.	.	1f	1a
1r	1r	1f	1a
=156	=156	=156	=156
1G	1d	0g	1.b-
1G	1d	.	.
.	.	.	2a/
1G	1d	1g	2b-\
.	.	.	2a/
=157	=157	=157	=157
1D	1d	1f	1.dd
1G	0e-	1b-	.
.	.	.	2cc\
1A	.	1a	1cc
=158	=158	=158	=158
1.B-	1.d	1f	0dd
.	.	0g	.
2A\	2c\	.	.
2G\	2.B-\	.	1ee-
4F\	.	.	.
4E-\	4A/	.	.
=159	=159	=159	=159
0D	0d	0f	0ff
1E-	1c	1g	1ee-
=160	=160	=160	=160
1F	1.c	1a-i	1cc
0D	.	1.f	0dd
.	2Bni\	.	.
.	1Bni	.	.
.	.	2e-\	.
=161	=161	=161	=161
0.C	0c	0e-	1.ee-
.	.	.	2dd\
.	1r	1r	2cc\
.	.	.	4b-\
.	.	.	4a/
=162	=162	=162	=162
0.r	1c	1e-	0g
.	1c	1e-	.
.	1c	1e-	1r
=163	=163	=163	=163
1C	0c	0.g	1cc
1C	.	.	1cc
1C	1r	.	1cc
=164	=164	=164	=164
1.G	0d	0.r	1.b-
2F\	.	.	2g/
1F	[1d	.	1a
=165	=165	=165	=165
1G	1d]	1.g	2g/
.	.	.	1b-
0D	0d	.	.
.	.	2e-\	2cc\
.	.	1f	1a
=166	=166	=166	=166
1.G	1e-	0g	2g/
.	.	.	1b-
.	2d\	.	.
2F\	1d	.	2cc\
1E-	.	1g	2dd\
.	2c\	.	2ee-\
=167	=167	=167	=167
1D	0d	1f	1ff
1.F	.	1.a-	2ee-\
.	.	.	1dd
.	1f	.	.
2E-\	.	2g\	2cc\
=168	=168	=168	=168
1C	1e-	1.g	1.cc
0G	0d	.	.
.	.	2f\	2bni\
.	.	1d	1bni
=169	=169	=169	=169
*M2/1	*M2/1	*M2/1	*M2/1
*met(C|)	*met(C|)	*met(C|)	*met(C|)
0C	0c	1e-	0cc
.	.	2r	.
.	.	2c\	.
=170	=170	=170	=170
0r	0r	2d\	2r
.	.	2e-\	2g/
.	.	2.f\	2a/
.	.	.	2b-\
.	.	4d\	.
=171	=171	=171	=171
1r	2r	1e-	2.cc\
.	2c\	.	.
.	.	.	4a/
2r	2d\	2r	2b-\
2E-\	[2e-\	2b-\	2g/
=172	=172	=172	=172
2F\	4e-\]	2a\	2a/
.	4d\	.	.
2G\	1d	1g	2b-\
2.A-\	.	.	1cc
.	2c\	2f\	.
4A-i\	.	.	.
=173	=173	=173	=173
1G	2d\	1g	2r
.	2G/	.	2b-\
1r	2A/	2f\	2cc\
.	2B-\	[2b-\	2dd\
=174	=174	=174	=174
1r	1c	2b-\]	2.ee-\
.	.	2a\	.
.	.	.	4cc\
2r	2B-\	2.b-\	2dd\
2E-\	[2e-\	.	2g/
.	.	4a\	.
=175	=175	=175	=175
2F\	4e-\]	4a\	2a/
.	4d\	4g\	.
2G\	1d	1g	2b-\
2.A-\	.	.	2.cc\
.	2c\	2f\	.
4A-i\	.	.	4a-/
=176	=176	=176	=176
*M3/1	*M3/1	*M3/1	*M3/1
*met(3)	*met(3)	*met(3)	*met(3)
1.G	0.d	1.g	1.b-
2F\	.	2a\	2cc\
1D	.	1b-	1dd
=177	=177	=177	=177
1C	1r	1.cc	0ee-
0E-	1r	.	.
.	.	2b-\	.
.	1G	1g	1ee-
=178	=178	=178	=178
0BB-	1.B-	0f	1.dd
.	2c\	.	2cc\
1BB-	1d	1f	2b-\
.	.	.	2a/
=179	=179	=179	=179
1C	0e-	1e-	1g
1.E-	.	1.g	2g/
.	.	.	1b-
.	1e-	.	.
2D\	.	2f\	2cc\
=180	=180	=180	=180
1BB-	0d	0f	1.dd
1.B-	.	.	.
.	.	.	2cc\
.	1d	1r	1b-
2A\	.	.	.
=181	=181	=181	=181
1F	1c	1f	1a
0G	1.B-	1d	1.g
.	.	1e-	.
.	2A/	.	2a/
=182	=182	=182	=182
1D	1.A	1.d	1f
1F	.	.	1a
.	2F/	2c\	.
1E-	1G	1c	1g
=183	=183	=183	=183
1D	1A	1d	1f
1BB-	1.d	1.f	1.b-
[1F	.	.	.
.	2c\	2e-\	2a/
=184	=184	=184	=184
1F]	1A	0d	1.a
1.G	0B-	.	.
.	.	.	2g/
.	.	1r	1g
[2D\	.	.	.
=185	=185	=185	=185
0D]	[0.Al	1.d	[0.al
.	.	2c\	.
1r	.	1c	.
=186	=186	=186	=186
0D	0.A_	0f	0.a_
1C	.	1eni	.
=187	=187	=187	=187
1.F	0.A_	1c	0.a_
.	.	0d	.
2Eni\	.	.	.
2D\	.	.	.
4C/	.	.	.
4BB-/	.	.	.
=188	=188	=188	=188
*	*	*^	*
0.AAl	0.A]	0.c#l\	0.enil/	0.a]
*	*	*v	*v	*
==	==	==	==
*-	*-	*-	*-
!!!RDF**kern: l=long note in original notation
!!!RDF**kern: i=editorial accidental
!!!ENC:	Chris Gage 07-05-2013
!!!END:	2013/07/31/
!!!EED:	Jesse Rodin
!!!EEV:	2013/08/05/
!!!ONB:	Translated from MusicXML and edited on 2013/08/05/ by Craig Sapp
!!muse2ps: C^@{COM}^i2I150v85,85,85,150Q16
